assets/newsletter/icon/mail.svg

<svg fill="none" height="30" viewBox="0 0 30 30" width="30" xmlns="http://www.w3.org/2000/svg"><g stroke="#292e47" stroke-linecap="round" stroke-miterlimit="10" stroke-width="1.25"><path d="m25 25h-20c-1.375 0-2.5-1.125-2.5-2.5v-15c0-1.375 1.125-2.5 2.5-2.5h20c1.375 0 2.5 1.125 2.5 2.5v15c0 1.375-1.125 2.5-2.5 2.5z" stroke-linejoin="round"/><path d="m25 5h-20c-1.375 0-2.5 1.125-2.5 2.5l12.5 8.75 12.5-8.75c0-1.375-1.125-2.5-2.5-2.5z"/></g></svg>

<svg width="30" height="30" viewBox="0 0 30 30" fill="none" xmlns="http://www.w3.org/2000/svg">
<path d="M25 25H5C3.625 25 2.5 23.875 2.5 22.5V7.5C2.5 6.125 3.625 5 5 5H25C26.375 5 27.5 6.125 27.5 7.5V22.5C27.5 23.875 26.375 25 25 25Z" stroke="#292E47" stroke-width="1.25" stroke-miterlimit="10" stroke-linecap="round" stroke-linejoin="round"/>
<path d="M25 5H5C3.625 5 2.5 6.125 2.5 7.5L15 16.25L27.5 7.5C27.5 6.125 26.375 5 25 5Z" stroke="#292E47" stroke-width="1.25" stroke-miterlimit="10" stroke-linecap="round"/>
</svg>
